Newaita/actions/16/color-fill.svg

<svg height="16" viewBox="0 0 16 16" width="16" xmlns="http://www.w3.org/2000/svg"><g fill="#424242"><path d="m12.898438 8.0625c-.183594 0-.328126.148438-.328126.332031v3.636719c0 .367188-.296874.664062-.664062.664062h-7.9375c-.367188 0-.660156-.296874-.660156-.664062v-3.636719c0-.183593-.148438-.332031-.332032-.332031h-.660156c-.183594 0-.332031.148438-.332031.332031v4.300781c0 .730469.589844 1.320313 1.324219 1.320313h9.261718c.730469 0 1.320313-.589844 1.320313-1.320313v-4.300781c0-.183593-.144531-.332031-.328125-.332031zm0 0"/><path d="m2.976562 11.039062h10.253907c.183593 0 .332031.148438.332031.332032s-.148438.332031-.332031.332031h-10.253907c-.183593 0-.332031-.148437-.332031-.332031s.148438-.332032.332031-.332032zm0 0"/><path d="m7.9375 2.109375c-.105469 0-.203125.046875-.265625.128906-.65625.820313-1.25 1.492188-1.6875 2.28125-.4375.785157-.703125 1.6875-.703125 2.894531 0 .03125.003906.066407.011719.097657.054687 1.421875 1.214843 2.546875 2.644531 2.546875 1.433594 0 2.59375-1.125 2.644531-2.546875.011719-.03125.015625-.066407.015625-.097657 0-1.207031-.269531-2.109374-.707031-2.894531-.4375-.789062-1.027344-1.460937-1.683594-2.28125-.066406-.082031-.164062-.128906-.269531-.128906zm0 .890625c.542969.667969 1.023438 1.253906 1.355469 1.851562.390625.699219.617187 1.453126.617187 2.5625 0 .027344.003906.054688.011719.082032-.046875 1.0625-.914063 1.902344-1.984375 1.902344s-1.9375-.839844-1.980469-1.898438c.003907-.03125.007813-.058594.007813-.085938 0-1.109374.230468-1.863281.617187-2.5625.335938-.597656.8125-1.183593 1.355469-1.851562zm0 0"/></g></svg>

<?xml version="1.0" encoding="UTF-8"?>
<svg xmlns="http://www.w3.org/2000/svg" xmlns:xlink="http://www.w3.org/1999/xlink" width="16px" height="16px" viewBox="0 0 16 16" version="1.1">
<g id="surface1">
<path style=" stroke:none;fill-rule:nonzero;fill:rgb(25.882354%,25.882354%,25.882354%);fill-opacity:1;" d="M 12.898438 8.0625 C 12.714844 8.0625 12.570312 8.210938 12.570312 8.394531 L 12.570312 12.03125 C 12.570312 12.398438 12.273438 12.695312 11.90625 12.695312 L 3.96875 12.695312 C 3.601562 12.695312 3.308594 12.398438 3.308594 12.03125 L 3.308594 8.394531 C 3.308594 8.210938 3.160156 8.0625 2.976562 8.0625 L 2.316406 8.0625 C 2.132812 8.0625 1.984375 8.210938 1.984375 8.394531 L 1.984375 12.695312 C 1.984375 13.425781 2.574219 14.015625 3.308594 14.015625 L 12.570312 14.015625 C 13.300781 14.015625 13.890625 13.425781 13.890625 12.695312 L 13.890625 8.394531 C 13.890625 8.210938 13.746094 8.0625 13.5625 8.0625 Z M 12.898438 8.0625 "/>
<path style=" stroke:none;fill-rule:nonzero;fill:rgb(25.882354%,25.882354%,25.882354%);fill-opacity:1;" d="M 2.976562 11.039062 L 13.230469 11.039062 C 13.414062 11.039062 13.5625 11.1875 13.5625 11.371094 C 13.5625 11.554688 13.414062 11.703125 13.230469 11.703125 L 2.976562 11.703125 C 2.792969 11.703125 2.644531 11.554688 2.644531 11.371094 C 2.644531 11.1875 2.792969 11.039062 2.976562 11.039062 Z M 2.976562 11.039062 "/>
<path style=" stroke:none;fill-rule:nonzero;fill:rgb(25.882354%,25.882354%,25.882354%);fill-opacity:1;" d="M 7.9375 2.109375 C 7.832031 2.109375 7.734375 2.15625 7.671875 2.238281 C 7.015625 3.058594 6.421875 3.730469 5.984375 4.519531 C 5.546875 5.304688 5.28125 6.207031 5.28125 7.414062 C 5.28125 7.445312 5.285156 7.480469 5.292969 7.511719 C 5.347656 8.933594 6.507812 10.058594 7.9375 10.058594 C 9.371094 10.058594 10.53125 8.933594 10.582031 7.511719 C 10.59375 7.480469 10.597656 7.445312 10.597656 7.414062 C 10.597656 6.207031 10.328125 5.304688 9.890625 4.519531 C 9.453125 3.730469 8.863281 3.058594 8.207031 2.238281 C 8.140625 2.15625 8.042969 2.109375 7.9375 2.109375 Z M 7.9375 3 C 8.480469 3.667969 8.960938 4.253906 9.292969 4.851562 C 9.683594 5.550781 9.910156 6.304688 9.910156 7.414062 C 9.910156 7.441406 9.914062 7.46875 9.921875 7.496094 C 9.875 8.558594 9.007812 9.398438 7.9375 9.398438 C 6.867188 9.398438 6 8.558594 5.957031 7.5 C 5.960938 7.46875 5.964844 7.441406 5.964844 7.414062 C 5.964844 6.304688 6.195312 5.550781 6.582031 4.851562 C 6.917969 4.253906 7.394531 3.667969 7.9375 3 Z M 7.9375 3 "/>
</g>
</svg>
